img/slack.svg

<svg width="110" height="32" viewBox="0 0 110 32" fill="none" xmlns="http://www.w3.org/2000/svg">
<path d="M19.7015 3.19998C19.2636 1.7655 17.7313 0.993084 16.3084 1.43446C14.8855 1.87584 14.1194 3.42067 14.5572 4.85515L21.5622 26.5931C22.0547 27.9172 23.4776 28.6896 24.8457 28.3034C26.2686 27.862 27.1442 26.3724 26.7064 24.9379C26.7064 24.8827 19.7015 3.19998 19.7015 3.19998Z" fill="white"/>
<path d="M8.86564 6.78616C8.42783 5.35168 6.89549 4.57927 5.47261 5.02065C4.04972 5.46202 3.28355 7.00685 3.72136 8.44133L10.7263 30.1793C11.2189 31.5034 12.6418 32.2758 14.0099 31.8896C15.4328 31.4482 16.3084 29.9586 15.8706 28.5241C15.8706 28.4689 8.86564 6.78616 8.86564 6.78616Z" fill="white"/>
<path d="M28.5672 21.2413C29.9901 20.7999 30.7562 19.2551 30.3184 17.8206C29.8806 16.3861 28.3483 15.6137 26.9254 16.0551L5.30846 23.062C3.99503 23.5585 3.22886 24.993 3.61194 26.3723C4.04975 27.8068 5.52736 28.6896 6.95025 28.2482C7.0597 28.2482 28.5672 21.2413 28.5672 21.2413Z" fill="white"/>
<path d="M9.796 27.3655C11.2189 26.9242 13.0249 26.3173 14.9403 25.6552C14.5025 24.2207 13.9005 22.4 13.2438 20.469L8.09949 22.1793L9.796 27.3655Z" fill="white"/>
<path d="M20.6866 23.7794C22.6567 23.1173 24.4627 22.5656 25.8308 22.069C25.393 20.6345 24.791 18.8138 24.1343 16.8828L18.9901 18.5932L20.6866 23.7794Z" fill="white"/>
<path d="M25.0099 10.262C26.4328 9.82065 27.199 8.27582 26.7612 6.84134C26.3234 5.40686 24.791 4.63444 23.3681 5.07582L1.80596 12.1379C0.492524 12.6344 -0.273645 14.0689 0.10944 15.4482C0.547251 16.9379 2.02486 17.8206 3.44775 17.3241C3.50247 17.3241 25.0099 10.262 25.0099 10.262Z" fill="white"/>
<path d="M6.29353 16.3863C7.71642 15.9449 9.52239 15.338 11.4378 14.676C10.7811 12.6897 10.2338 10.8691 9.74129 9.48975L4.59702 11.2001L6.29353 16.3863Z" fill="white"/>
<path d="M17.1293 12.8553C19.0995 12.1932 20.9055 11.6415 22.2736 11.1449C21.6169 9.15874 21.0696 7.33805 20.5771 5.95874L15.4328 7.66909L17.1293 12.8553Z" fill="white"/>
<path d="M50.403 8.9379C51.3333 9.37928 51.4428 9.65514 50.6766 11.0896C49.9104 12.5793 49.7463 12.6345 48.7612 12.2482C47.5572 11.7517 46.0796 11.3655 45.0945 11.3655C43.5075 11.3655 42.4677 11.9172 42.4677 12.8C42.4677 15.6689 51.607 14.1241 51.607 20.3034C51.607 23.3931 48.9801 25.4345 45.0398 25.4345C42.9602 25.4345 40.3881 24.7172 38.6368 23.8345C37.7612 23.3931 37.7065 23.1172 38.4726 21.6276C39.1293 20.3586 39.3483 20.1931 40.2786 20.5793C41.8109 21.2413 43.6716 21.7379 44.9851 21.7379C46.4627 21.7379 47.393 21.131 47.393 20.2482C47.393 17.4345 38.0895 18.7586 38.0895 12.8C38.0895 9.65514 40.7164 7.50342 44.602 7.50342C46.4627 7.66894 48.8159 8.22066 50.403 8.9379Z" fill="white"/>
<path d="M57.791 1.65517V24.6069C57.791 24.9379 57.408 25.3241 56.9154 25.3241H54.5075C53.9602 25.3241 53.6318 24.9379 53.6318 24.6069V1.65517C53.6318 0.496553 53.9602 0.441381 55.7114 0.441381C57.6816 0.386208 57.791 0.551726 57.791 1.65517Z" fill="white"/>
<path fill-rule="evenodd" clip-rule="evenodd" d="M74.7562 24.3862V14.5103C74.7562 10.2069 71.8557 7.66895 67.2587 7.66895C65.1791 7.66895 62.8806 8.33101 61.2388 9.43446C60.3632 9.98619 60.3632 10.262 61.2388 11.6414C62.1691 13.0207 62.3333 13.0758 63.2089 12.5793C64.3035 11.9172 65.6716 11.4758 66.8209 11.4758C69.2288 11.4758 70.6517 12.5793 70.6517 14.4V15.5586C69.5025 15.062 68.0796 14.7862 66.5472 14.7862C62.4428 14.7862 59.7612 16.9931 59.7612 20.3034C59.7612 23.3931 62.1691 25.4896 65.7263 25.4896C67.587 25.4896 69.4477 24.7172 70.7064 23.2827L70.6517 24.331C70.597 24.8827 70.9801 25.2689 71.5273 25.2689H73.8806C74.3731 25.2689 74.7562 24.9379 74.7562 24.3862ZM66.2189 22.1793C64.7413 22.1793 63.7562 21.4069 63.7562 20.2483C63.7562 18.8138 65.2338 17.7103 67.4229 17.7103C68.4627 17.7103 69.6666 17.8758 70.597 18.262V19.8069C69.6666 21.2965 68.0249 22.1793 66.2189 22.1793Z" fill="white"/>
<path d="M91.0099 8.99322C91.8856 9.48978 91.8856 9.76564 90.9552 11.2553C90.0796 12.6346 89.9154 12.7449 88.9303 12.2484C88.2189 11.8622 87.0149 11.5312 86.0846 11.5312C83.0746 11.5312 81.1045 13.5174 81.1045 16.5518C81.1045 19.6967 83.0746 21.7932 86.0846 21.7932C87.1244 21.7932 88.4378 21.407 89.2587 20.9105C90.1343 20.4139 90.2985 20.4139 91.2288 21.7932C92.0497 23.0622 92.0497 23.338 91.2836 23.8898C89.9701 24.8277 87.8358 25.5449 85.9751 25.5449C80.4477 25.5449 76.7263 21.9587 76.7263 16.607C76.7263 11.2553 80.4477 7.72426 86.0298 7.72426C87.7811 7.66909 89.7512 8.22081 91.0099 8.99322Z" fill="white"/>
<path d="M109.124 23.1173C109.836 24 109.562 24.3311 107.811 24.938C106.06 25.6 105.786 25.5449 105.184 24.7173L100.204 18.0414L97.9602 20.1931V24.5518C97.9602 24.8828 97.5771 25.269 97.0845 25.269H94.6766C94.1293 25.269 93.801 24.8828 93.801 24.5518V1.6552C93.801 0.496579 94.1293 0.441406 95.8806 0.441406C97.9054 0.441406 97.9602 0.606924 97.9602 1.6552V14.6759L104.746 8.11037C105.512 7.39313 105.895 7.4483 107.264 8.33106C108.741 9.26899 108.851 9.54485 108.139 10.2621L103.104 15.2276L109.124 23.1173Z" fill="white"/>
</svg>

<svg width="110" height="32" fill="none" xmlns="http://www.w3.org/2000/svg"><path d="M19.701 3.2c-.437-1.435-1.97-2.207-3.393-1.766-1.422.442-2.189 1.987-1.75 3.421l7.004 21.738c.493 1.324 1.916 2.097 3.284 1.71 1.423-.441 2.298-1.93 1.86-3.365 0-.055-7.005-21.738-7.005-21.738ZM8.866 6.786c-.438-1.434-1.97-2.207-3.393-1.765-1.423.441-2.19 1.986-1.752 3.42l7.005 21.738c.493 1.324 1.916 2.097 3.284 1.71 1.423-.44 2.298-1.93 1.86-3.365 0-.055-7.004-21.738-7.004-21.738Z" fill="#fff"/><path d="M28.567 21.241c1.423-.441 2.19-1.986 1.751-3.42-.437-1.435-1.97-2.207-3.393-1.766L5.308 23.062c-1.313.497-2.08 1.931-1.696 3.31.438 1.435 1.915 2.318 3.338 1.876.11 0 21.617-7.007 21.617-7.007Z" fill="#fff"/><path d="M9.796 27.366a179.933 179.933 0 0 0 5.144-1.71 183.86 183.86 0 0 0-1.696-5.187l-5.145 1.71 1.697 5.187ZM20.687 23.78c1.97-.663 3.776-1.215 5.144-1.711a183.86 183.86 0 0 0-1.697-5.186l-5.144 1.71 1.697 5.186ZM25.01 10.262c1.423-.441 2.189-1.986 1.751-3.42-.438-1.435-1.97-2.208-3.393-1.766L1.806 12.138c-1.313.496-2.08 1.93-1.697 3.31.438 1.49 1.916 2.373 3.339 1.876.054 0 21.562-7.062 21.562-7.062Z" fill="#fff"/><path d="M6.293 16.386a180.335 180.335 0 0 0 5.145-1.71c-.657-1.986-1.204-3.807-1.697-5.186L4.597 11.2l1.696 5.186ZM17.13 12.855c1.97-.662 3.775-1.214 5.144-1.71-.657-1.986-1.204-3.807-1.697-5.186l-5.144 1.71 1.696 5.186ZM50.403 8.938c.93.441 1.04.717.274 2.152-.767 1.49-.93 1.544-1.916 1.158-1.204-.496-2.681-.882-3.667-.882-1.587 0-2.626.551-2.626 1.434 0 2.869 9.139 1.324 9.139 7.503 0 3.09-2.627 5.131-6.567 5.131-2.08 0-4.652-.717-6.403-1.6-.876-.44-.93-.717-.164-2.206.656-1.27.875-1.435 1.806-1.049 1.532.662 3.393 1.159 4.706 1.159 1.478 0 2.408-.607 2.408-1.49 0-2.814-9.303-1.49-9.303-7.448 0-3.145 2.626-5.297 6.512-5.297 1.86.166 4.214.718 5.801 1.435ZM57.791 1.655v22.952c0 .33-.383.717-.876.717h-2.407c-.548 0-.876-.386-.876-.717V1.655c0-1.158.328-1.214 2.08-1.214 1.97-.055 2.079.11 2.079 1.214Z" fill="#fff"/><path fill-rule="evenodd" clip-rule="evenodd" d="M74.756 24.386V14.51c0-4.303-2.9-6.841-7.497-6.841-2.08 0-4.378.662-6.02 1.765-.876.552-.876.828 0 2.207.93 1.38 1.094 1.435 1.97.938 1.094-.662 2.463-1.103 3.612-1.103 2.408 0 3.83 1.103 3.83 2.924v1.159c-1.148-.497-2.571-.773-4.104-.773-4.104 0-6.786 2.207-6.786 5.517 0 3.09 2.408 5.187 5.965 5.187 1.861 0 3.722-.773 4.98-2.207l-.054 1.048c-.055.552.328.938.875.938h2.354c.492 0 .875-.331.875-.883ZM66.22 22.18c-1.478 0-2.463-.772-2.463-1.93 0-1.435 1.478-2.539 3.667-2.539 1.04 0 2.244.166 3.174.552v1.545c-.93 1.49-2.572 2.372-4.378 2.372Z" fill="#fff"/><path d="M91.01 8.993c.876.497.876.773-.055 2.262-.875 1.38-1.04 1.49-2.025.993-.711-.386-1.915-.717-2.845-.717-3.01 0-4.98 1.986-4.98 5.02 0 3.146 1.97 5.242 4.98 5.242 1.04 0 2.353-.386 3.174-.883.875-.496 1.04-.496 1.97.883.82 1.27.82 1.545.055 2.097-1.314.938-3.448 1.655-5.309 1.655-5.527 0-9.249-3.586-9.249-8.938s3.722-8.883 9.304-8.883c1.751-.055 3.721.497 4.98 1.27ZM109.124 23.117c.712.883.438 1.214-1.313 1.821-1.751.662-2.025.607-2.627-.22l-4.98-6.677-2.244 2.152v4.359c0 .33-.383.717-.875.717h-2.408c-.548 0-.876-.386-.876-.717V1.655c0-1.158.328-1.214 2.08-1.214 2.024 0 2.08.166 2.08 1.214v13.02l6.785-6.565c.766-.717 1.149-.662 2.518.221 1.477.938 1.587 1.214.875 1.931l-5.035 4.966 6.02 7.89Z" fill="#fff"/></svg>
